svg/card_account_details.svg

<svg xmlns="http://www.w3.org/2000/svg" viewBox="0 0 24 24"><path d="M2 3h20c1.05 0 2 .95 2 2v14c0 1.05-.95 2-2 2H2c-1.05 0-2-.95-2-2V5c0-1.05.95-2 2-2m12 3v1h8V6zm0 2v1h8V8zm0 2v1h7v-1zm-6 3.91C6 13.91 2 15 2 17v1h12v-1c0-2-4-3.09-6-3.09M8 6a3 3 0 0 0-3 3 3 3 0 0 0 3 3 3 3 0 0 0 3-3 3 3 0 0 0-3-3"/></svg>

<?xml version="1.0" encoding="UTF-8"?><!DOCTYPE svg PUBLIC "-//W3C//DTD SVG 1.1//EN" "http://www.w3.org/Graphics/SVG/1.1/DTD/svg11.dtd"><svg xmlns="http://www.w3.org/2000/svg" xmlns:xlink="http://www.w3.org/1999/xlink" version="1.1" id="mdi-card-account-details" width="24" height="24" viewBox="0 0 24 24"><path d="M2,3H22C23.05,3 24,3.95 24,5V19C24,20.05 23.05,21 22,21H2C0.95,21 0,20.05 0,19V5C0,3.95 0.95,3 2,3M14,6V7H22V6H14M14,8V9H21.5L22,9V8H14M14,10V11H21V10H14M8,13.91C6,13.91 2,15 2,17V18H14V17C14,15 10,13.91 8,13.91M8,6A3,3 0 0,0 5,9A3,3 0 0,0 8,12A3,3 0 0,0 11,9A3,3 0 0,0 8,6Z" /></svg>
